X: 336
T: Durang's Hornpipe
B: canberra pickers and fiddlers
B: tunes
M:C|
L:1/8
R: Hornpipe
Q: 1/4=100
K:D
V:1 
A2 | DAFA  DAFA | BcdB  BAFA |   DAFA  DAFA | A,ECE A,ECE |
DAFA  DAFA | BcdB  BAFA |   fgaf  bgec | d2 d2 d2   :|
|: A2 | defe  dcBA | Bcdc  BAGF | E2 (gf) edcB | Acec  dBA^G |
A^GAB cBcd | e^def gfge |   fgaf  bgec | d2 d2 d2   :|
% abcbook-tune_id 677b329f45cc7bc346a58481
% abcbook-tune_composer_id 
% abcbook-link-0 https://www.youtube.com/watch?v=JdufdJL5NUE
% abcbook-link-start-at-0 6
% abcbook-link-1 https://syntithenai.github.io/abc2book_free_music/sandy gibney/durangs hornpipe.mp3
% abcbook-boost 0
% abcbook-difficulty 0
% abcbook-tags old time tunes,sandy gibney
% abcbook-tablature 
% abcbook-transpose 
% abcbook-tuning ADAE
% abcbook-lastupdated 1738707226077
% abcbook-src-url 
% abcbook-soundfonts 
% abcbook-repeats 1
% Rhythm Hornpipe
% Titles One title
% Transcriptions Only 1 transcription
% Movement Has lots of stepwise movement
% Movement Has some stepwise movement
% Mode major
% Key D
% Time_signature 2/2
% Has_accompaniment_chords No chords

